papirus/22x22/apps/yast.svg

<svg height="22" width="22" xmlns="http://www.w3.org/2000/svg" xmlns:xlink="http://www.w3.org/1999/xlink"><linearGradient id="a"><stop offset="0"/><stop offset="1" stop-opacity="0"/></linearGradient><linearGradient id="b" gradientTransform="matrix(.16176 .16176 -.16176 .16176 -30.005 -50.11515)" gradientUnits="userSpaceOnUse" x1="296.98001" x2="318.20001" xlink:href="#a" y1="70.710999" y2="70.710999"/><linearGradient id="c" gradientTransform="matrix(.16176 .16176 -.16176 .16176 -24.9135 -46.06965)" gradientUnits="userSpaceOnUse" x1="296.98001" x2="318.20001" xlink:href="#a" y1="70.710999" y2="70.710999"/><linearGradient id="d" gradientTransform="matrix(.16176 .16176 -.16176 .16176 -20.057 -49.16)" gradientUnits="userSpaceOnUse" x1="296.98001" x2="318.20001" xlink:href="#a" y1="70.710999" y2="70.710999"/><g transform="translate(-1 -1)"><rect fill="#e9a84a" height="20" rx="1" transform="matrix(0 -1 -1 0 0 0)" width="20" x="-22" y="-22"/><path d="m3 2c-.554 0-1 .446-1 1v .5c0-.554.446-1 1-1h18c .554 0 1 .446 1 1v-.5c0-.554-.446-1-1-1z" fill="#fff" opacity=".2"/><path d="m3 22c-.554 0-1-.446-1-1v-.5c0 .554.446 1 1 1h18c .554 0 1-.446 1-1v .5c0 .554-.446 1-1 1z" opacity=".3"/><path d="m7 6c-.554 0-1 .446-1 1v10c0 .554.446 1 1 1 .554 0 1-.446 1-1v-10c0-.554-.446-1-1-1zm5 0c-.554 0-1 .446-1 1v10c0 .554.446 1 1 1 .554 0 1-.446 1-1v-10c0-.554-.446-1-1-1zm5 0c-.554 0-1 .446-1 1v10c0 .554.446 1 1 1 .554 0 1-.446 1-1v-10c0-.554-.446-1-1-1z" opacity=".3"/><path d="m11.3985 11.57685l-3.04565 2.58815-1.958-2.2517c.13275-1.34185.94605-2.52315 1.57425-3.69415.51925.34584 2.5305 2.45875 3.42945 3.3577z" fill="url(#b)" opacity=".2"/><path d="m9 9.99985a2 2 0 0 1 -2 2 2 2 0 0 1 -2-2 2 2 0 0 1  2-2 2 2 0 0 1  2 2z" fill="#494949"/><path d="m16.49 15.62185l-3.04565 2.58815-1.958-2.2517c.13275-1.34185.94605-2.52315 1.57425-3.69415.51925.34584 2.5305 2.45875 3.42945 3.3577z" fill="url(#c)" opacity=".2"/><path d="m14 14.00035a2 2 0 0 1 -2 2 2 2 0 0 1 -2-2 2 2 0 0 1  2-2 2 2 0 0 1  2 2z" fill="#494949"/><path d="m21.347 12.532l-3.04565 2.58815-1.958-2.2517c.13275-1.34185.94605-2.52315 1.57425-3.69415.51925.34584 2.5305 2.45875 3.42945 3.3577z" fill="url(#d)" opacity=".2"/><path d="m19 11a2 2 0 0 1 -2 2 2 2 0 0 1 -2-2 2 2 0 0 1  2-2 2 2 0 0 1  2 2z" fill="#494949"/></g></svg>

<?xml version="1.0" encoding="UTF-8" standalone="no"?>
<!-- Created with Inkscape (http://www.inkscape.org/) -->

<svg
   xmlns:dc="http://purl.org/dc/elements/1.1/"
   xmlns:cc="http://creativecommons.org/ns#"
   xmlns:rdf="http://www.w3.org/1999/02/22-rdf-syntax-ns#"
   xmlns:svg="http://www.w3.org/2000/svg"
   xmlns="http://www.w3.org/2000/svg"
   xmlns:xlink="http://www.w3.org/1999/xlink"
   xmlns:sodipodi="http://sodipodi.sourceforge.net/DTD/sodipodi-0.dtd"
   xmlns:inkscape="http://www.inkscape.org/namespaces/inkscape"
   id="svg2817"
   height="22"
   width="22"
   version="1.0"
   inkscape:version="0.91 r13725"
   sodipodi:docname="yast.svg">
  <sodipodi:namedview
     pagecolor="#ffffff"
     bordercolor="#666666"
     borderopacity="1"
     objecttolerance="10"
     gridtolerance="10"
     guidetolerance="10"
     inkscape:pageopacity="0"
     inkscape:pageshadow="2"
     inkscape:window-width="1600"
     inkscape:window-height="849"
     id="namedview21"
     showgrid="false"
     inkscape:zoom="5.71"
     inkscape:cx="-40.178634"
     inkscape:cy="24"
     inkscape:window-x="0"
     inkscape:window-y="0"
     inkscape:window-maximized="1"
     inkscape:current-layer="svg2817" />
  <metadata
     id="metadata57">
    <rdf:RDF>
      <cc:Work
         rdf:about="">
        <dc:format>image/svg+xml</dc:format>
        <dc:type
           rdf:resource="http://purl.org/dc/dcmitype/StillImage" />
        <dc:title></dc:title>
      </cc:Work>
    </rdf:RDF>
  </metadata>
  <defs
     id="defs2819">
    <linearGradient
       id="linearGradient3681">
      <stop
         id="stop3683"
         offset="0" />
      <stop
         id="stop3685"
         stop-opacity="0"
         offset="1" />
    </linearGradient>
    <linearGradient
       id="linearGradient4229"
       y2="70.710999"
       xlink:href="#linearGradient3681"
       gradientUnits="userSpaceOnUse"
       x2="318.20001"
       gradientTransform="matrix(0.16176,0.16176,-0.16176,0.16176,-30.005,-50.11515)"
       y1="70.710999"
       x1="296.98001" />
    <linearGradient
       id="linearGradient4198"
       y2="70.710999"
       xlink:href="#linearGradient3681"
       gradientUnits="userSpaceOnUse"
       x2="318.20001"
       gradientTransform="matrix(0.16176,0.16176,-0.16176,0.16176,-24.9135,-46.06965)"
       y1="70.710999"
       x1="296.98001" />
    <linearGradient
       id="linearGradient4202"
       y2="70.710999"
       xlink:href="#linearGradient3681"
       gradientUnits="userSpaceOnUse"
       x2="318.20001"
       gradientTransform="matrix(0.16176,0.16176,-0.16176,0.16176,-20.057,-49.16)"
       y1="70.710999"
       x1="296.98001" />
  </defs>
  <g
     id="g4148"
     transform="translate(-1,-1)">
    <rect
       x="-22"
       y="-22"
       width="20"
       height="20"
       ry="1"
       rx="1"
       transform="matrix(0,-1,-1,0,0,0)"
       id="rect4203"
       style="fill:#e9a84a" />
    <path
       d="M 3,2 C 2.446,2 2,2.446 2,3 l 0,0.5 c 0,-0.554 0.446,-1 1,-1 l 18,0 c 0.554,0 1,0.446 1,1 L 22,3 C 22,2.446 21.554,2 21,2 L 3,2 Z"
       id="rect4592"
       inkscape:connector-curvature="0"
       style="opacity:0.2;fill:#ffffff" />
    <path
       d="M 3,22 C 2.446,22 2,21.554 2,21 l 0,-0.5 c 0,0.554 0.446,1 1,1 l 18,0 c 0.554,0 1,-0.446 1,-1 l 0,0.5 c 0,0.554 -0.446,1 -1,1 L 3,22 Z"
       id="path4597"
       inkscape:connector-curvature="0"
       style="opacity:0.3" />
    <path
       d="M 7,6 C 6.446,6 6,6.446 6,7 l 0,10 c 0,0.554 0.446,1 1,1 0.554,0 1,-0.446 1,-1 L 8,7 C 8,6.446 7.554,6 7,6 Z m 5,0 c -0.554,0 -1,0.446 -1,1 l 0,10 c 0,0.554 0.446,1 1,1 0.554,0 1,-0.446 1,-1 L 13,7 C 13,6.446 12.554,6 12,6 Z m 5,0 c -0.554,0 -1,0.446 -1,1 l 0,10 c 0,0.554 0.446,1 1,1 0.554,0 1,-0.446 1,-1 L 18,7 C 18,6.446 17.554,6 17,6 Z"
       id="rect4257"
       inkscape:connector-curvature="0"
       style="opacity:0.3" />
    <path
       d="M 11.3985,11.57685 8.35285,14.165 6.39485,11.9133 C 6.5276,10.57145 7.3409,9.39015 7.9691,8.21915 c 0.51925,0.34584 2.5305,2.45875 3.42945,3.3577 z"
       style="opacity:0.2;fill:url(#linearGradient4229);enable-background:new"
       id="rect4205"
       inkscape:connector-curvature="0" />
    <path
       style="fill:#494949;fill-opacity:1"
       d="m 9,9.99985 a 2,2 0 0 1 -2,2 2,2 0 0 1 -2,-2 2,2 0 0 1 2,-2 2,2 0 0 1 2,2 z"
       id="path4383"
       inkscape:connector-curvature="0" />
    <path
       d="m 16.49,15.62185 -3.04565,2.58815 -1.958,-2.2517 c 0.13275,-1.34185 0.94605,-2.52315 1.57425,-3.69415 0.51925,0.34584 2.5305,2.45875 3.42945,3.3577 z"
       style="opacity:0.2;fill:url(#linearGradient4198);enable-background:new"
       id="path4196"
       inkscape:connector-curvature="0" />
    <path
       style="fill:#494949;fill-opacity:1"
       d="m 14,14.00035 a 2,2 0 0 1 -2,2 2,2 0 0 1 -2,-2 2,2 0 0 1 2,-2 2,2 0 0 1 2,2 z"
       id="path4389"
       inkscape:connector-curvature="0" />
    <path
       d="m 21.347,12.532 -3.04565,2.58815 -1.958,-2.2517 C 16.4761,11.5266 17.2894,10.3453 17.9176,9.1743 c 0.51925,0.34584 2.5305,2.45875 3.42945,3.3577 z"
       style="opacity:0.2;fill:url(#linearGradient4202);enable-background:new"
       id="path4200"
       inkscape:connector-curvature="0" />
    <path
       style="fill:#494949;fill-opacity:1"
       d="m 19,11 a 2,2 0 0 1 -2,2 2,2 0 0 1 -2,-2 2,2 0 0 1 2,-2 2,2 0 0 1 2,2 z"
       id="path4391"
       inkscape:connector-curvature="0" />
  </g>
</svg>
